frontend/public/svg/interface/tick-2.svg

<svg width="170" height="163" viewBox="0 0 170 163" fill="none" xmlns="http://www.w3.org/2000/svg">
<path d="M142.196 30.4125C142.586 30.0637 142.897 29.6356 143.109 29.1567C143.32 28.6778 143.427 28.1592 143.422 27.6357C143.417 27.1122 143.3 26.5959 143.079 26.1213C142.858 25.6467 142.538 25.2248 142.141 24.8838C141.722 24.5249 141.307 24.1678 140.895 23.8127C137.751 21.1093 134.5 18.3102 131.1 15.9225C105.123 -2.36044 78.1316 -2.4633 50.8803 7.23287C26.2068 16.0055 10.3619 33.5563 3.77909 59.3882C-3.56415 88.249 2.86618 113.71 22.9048 135.073C23.4261 135.625 23.9582 136.177 24.4895 136.704C35.2539 147.469 48.6614 154.115 59.2847 158.739C63.8445 160.731 87.2404 163.149 93.5707 162.206C131.19 156.588 155.946 135.37 164.569 99.8725C166.215 92.9194 167.035 85.7962 167.011 78.6508C166.974 71.1466 165.712 63.6988 163.275 56.6012C163.097 56.0703 162.805 55.5851 162.418 55.1805C162.031 54.7759 161.56 54.4618 161.037 54.2606C160.515 54.0595 159.954 53.9764 159.396 54.0171C158.838 54.0579 158.295 54.2216 157.808 54.4965L157.706 54.5547C156.931 54.9984 156.336 55.7005 156.027 56.5381C155.717 57.3757 155.712 58.2954 156.012 59.1364C158.212 65.2371 159.334 71.674 159.327 78.1592C159.251 85.9394 158.198 93.6792 156.192 101.197C150.248 122.8 136.038 138.545 112.75 149.315C89.0741 160.65 55.1215 149.19 46.0879 143.226C36.1031 136.4 27.3663 127.908 20.2596 118.121C9.11418 102.34 6.61369 79.6587 12.6028 58.9229C15.4055 49.3489 20.3036 40.5185 26.9421 33.0722C33.5806 25.6259 41.793 19.7503 50.9838 15.8714C74.8941 5.93474 98.8852 4.18192 122.285 19.0635C125.422 21.061 133.422 27.3424 137.465 30.5501C138.143 31.0882 138.99 31.3691 139.855 31.3432C140.721 31.3172 141.549 30.986 142.194 30.4082L142.196 30.4125Z" fill="black"/>
<path d="M74.6287 104.313C76.2312 102.79 77.1115 102.019 77.9173 101.177C103.753 74.1855 132.047 49.8851 160.508 25.7727C161.584 24.8619 162.685 23.7 163.958 23.3737C165.493 22.9815 167.996 23.4326 168.682 24.2661C169.133 24.8821 169.418 25.6035 169.509 26.3612C169.601 27.1189 169.496 27.8875 169.206 28.5932C168.537 30.3474 166.907 31.8498 165.429 33.1629C156.607 41.0019 147.538 48.5708 138.872 56.5716C120.756 73.3024 102.756 90.1576 84.8704 107.137C77.0334 114.561 74.0173 114.862 66.8059 106.929C62.0589 101.705 47.7328 84.0973 43.3455 78.5495C42.7256 77.6872 42.1735 76.7781 41.6941 75.8305C40.7045 74.0756 40.0576 72.1419 42.0246 70.7814C44.2158 69.2662 45.7707 70.8473 47.0696 72.4937C48.384 74.1607 49.5048 75.9916 50.9121 77.5713C55.2811 82.4737 69.908 99.1421 74.6287 104.313Z" fill="black"/>
</svg>

<svg xmlns="http://www.w3.org/2000/svg" width="170" height="163" fill="none" viewBox="0 0 170 163"><path fill="#000" d="M142.196 30.413a3.7 3.7 0 0 0 1.226-2.777 3.67 3.67 0 0 0-1.281-2.752l-1.246-1.071c-3.144-2.704-6.395-5.503-9.795-7.89C105.123-2.36 78.132-2.463 50.88 7.233c-24.673 8.773-40.518 26.323-47.1 52.155-7.344 28.861-.914 54.322 19.125 75.685a70 70 0 0 0 1.584 1.631c10.765 10.765 24.172 17.411 34.796 22.035 4.56 1.992 27.955 4.41 34.286 3.467 37.619-5.618 62.375-26.836 70.998-62.333a90.8 90.8 0 0 0 2.442-21.222 69 69 0 0 0-3.736-22.05 3.8 3.8 0 0 0-2.238-2.34 3.8 3.8 0 0 0-3.229.235l-.102.059a3.8 3.8 0 0 0-1.694 4.581 55.9 55.9 0 0 1 3.315 19.023 93 93 0 0 1-3.135 23.038c-5.944 21.603-20.154 37.348-43.442 48.118-23.676 11.335-57.628-.125-66.662-6.089a105.5 105.5 0 0 1-25.828-25.105C9.114 102.34 6.614 79.659 12.603 58.923a67.23 67.23 0 0 1 38.38-43.052c23.911-9.936 47.902-11.69 71.302 3.193 3.137 1.997 11.137 8.278 15.18 11.486a3.67 3.67 0 0 0 4.729-.142z"/><path fill="#000" d="M74.629 104.313c1.602-1.523 2.483-2.294 3.288-3.136 25.836-26.992 54.13-51.292 82.591-75.404 1.076-.911 2.177-2.073 3.45-2.4 1.535-.392 4.038.06 4.724.893a4.46 4.46 0 0 1 .524 4.327c-.669 1.754-2.299 3.257-3.777 4.57-8.822 7.839-17.891 15.408-26.557 23.409a5383 5383 0 0 0-54.002 50.565c-7.837 7.424-10.853 7.725-18.064-.208-4.747-5.224-19.073-22.832-23.46-28.38a20.6 20.6 0 0 1-1.652-2.719c-.99-1.754-1.636-3.688.33-5.049 2.192-1.515 3.747.066 5.046 1.713 1.314 1.667 2.435 3.498 3.842 5.077 4.37 4.903 18.996 21.571 23.717 26.742"/></svg>
